!!!OTL: 50. Skotshne
!!!Genre:	Skotshne
!!!Mode:	Minor
!!!Listening/dance:	listening
!!!:	*B-:
!!!One_Mode:	no
**kern
*thru
*I"P1
*clefG2
*k[b-e-]
*B-:
!LO:TX:a:i:t=Bb-major
=9:|!|:
16b-LL
(16d
16f)
(16b-JJ
16ddLL)
(16f
16b-)
(16ddJJ
=10
16ffLL)
(16een
16gg)
(16ffJJ
16bb-LL)
16aa'
16gg'
16ff'JJ
=11
(16ee-XLL
16dd)
16cc
16ddJJ
16ee-LL
16dd
16ff
16ddJJ
=12
4.cc
8b-
=13
16aLL
(16f
16a)
(16ccJJ
16ee-LL)
(16a
16cc)
(16ee-JJ
=14
16aaLL)
16gg
16ff
16ee-JJ
16ddLL
16cc
16b-
16aJJ
=15
8fL
(16aaL
16ggJJ)
16ffLL
16ee-
16dd
16ccJJ
*>B1
=16
(16ccLL
16ddJJ
4b-)
8f
*>B
16b-LL
(16d
16f)
(16b-JJ
16ddLL)
(16f
16b-)
(16ddJJ
=10
16ffLL)
(16een
16gg)
(16ffJJ
16bb-LL)
16aa'
16gg'
16ff'JJ
=11
(16ee-XLL
16dd)
16cc
16ddJJ
16ee-LL
16dd
16ff
16ddJJ
=12
4.cc
8b-
=13
16aLL
(16f
16a)
(16ccJJ
16ee-LL)
(16a
16cc)
(16ee-JJ
=14
16aaLL)
16gg
16ff
16ee-JJ
16ddLL
16cc
16b-
16aJJ
=15
8fL
(16aaL
16ggJJ)
16ffLL
16ee-
16dd
16ccJJ
*>B2
=17:|!
(16ccLL
16ddJJ)
4b-
*>C
8a
!!!End-Modulation
*-
